X:1
T:Miss Murray ofLintrose
L:1/4
M:2/2
I:linebreak $
K:A
V:1 treble nm="Voice" snm="Voice"
V:1
 e/d/ | c c/B/ A E | F2 E d | c A B A/G/ | A/B/c/d/ e e/d/ |$ c c/B/ A E | F2 E d | c A G/A/B/G/ |1 %8
 A3 :|2 A4 |:$ A/c/ e e d/e/ | f d d c/B/ | E d d c/d/ | e c c B/A/ |$ E c F d | c2 B d | %16
 c A G/A/B/G/ |1 A4 |]2 A3 |] %19
